Adwaita++-Light/panel/16/state-warning.svg

<svg height="16" width="16" xmlns="http://www.w3.org/2000/svg">
  <path d="m7.9238 1.002c-.4797.0289-.9139.3272-1.1543.7929l-2.789 5.4082-2.791 5.4099c-.1189.231-.184.492-.1895.758-.0189.893.6222 1.628 1.4199 1.629h5.5801 5.578c1.094 0 1.777-1.326 1.231-2.387l-2.789-5.4099-2.7895-5.4082c-.2422-.4689-.6808-.7677-1.1641-.7929-.0475-.00272-.0951-.00272-.1426 0zm-.9238 3.998h2v5h-2zm0 6h2v2h-2z" fill="#444"/>
</svg>

<svg xmlns="http://www.w3.org/2000/svg" width="16" height="16" version="1.1">
 <defs>
  <style id="current-color-scheme" type="text/css">
   .ColorScheme-Text { color:#444444; } .ColorScheme-Highlight { color:#4285f4; }
  </style>
 </defs>
 <path style="fill:currentColor" class="ColorScheme-Text" d="M 7.9238,1.002 C 7.4441,1.0309 7.0099,1.3292 6.7695,1.7949 L 3.9805,7.2031 1.1895,12.613 C 1.0706,12.844 1.0055,13.105 1,13.371 0.9811,14.264 1.6222,14.999 2.4199,15 H 8 13.578 C 14.672,15 15.355,13.674 14.809,12.613 L 12.02,7.2031 9.2305,1.7949 C 8.9883,1.326 8.5497,1.0272 8.0664,1.002 8.0189,0.99928 7.9713,0.99928 7.9238,1.002 Z M 7,5 H 9 V 10 H 7 Z M 7,11 H 9 V 13 H 7 Z"/>
</svg>
